X:1
T: Aim\'e Gagnon
M: C|
L: 1/8
R: reel
K:G
% %vskip .2cm
DC|"G"B,DGA B2DC|B,DGA "G#dim"B2AG|"Am7"FGAB cAFA|"D"GABc "D7"d2DC|
"G"B,DGA B2DC|B,DGA "G#dim"B2AG|"Am7"FGAB cAFA|"D7"GBAF "G"G2:|
|:Bd|"G"gddg ddgd|Bcde "G#dim"dBAG| "Am7"FGAB cAFA|"D"GABc "D7"d2Bd|
"G"gddg ddgd|Bcde "G#dim"dBAG| "Am7"FGAB cAFA|"D7"GBAF "G"G2:|

